<?xml version="1.0" encoding="UTF-8"?>
<map version="1.10" tiledversion="1.12.2" orientation="orthogonal" renderorder="right-down" width="30" height="20" tilewidth="64" tileheight="64" infinite="0" nextlayerid="2" nextobjectid="1">
 <tileset firstgid="1" source="terrain_map.tsx"/>
 <layer id="1" name="Tile Layer 1" width="30" height="20">
  <data encoding="csv">
44,44,44,44,44,36,36,36,36,36,36,36,36,36,36,37,38,46,46,46,46,46,46,38,38,38,38,38,38,38,
52,52,52,52,52,44,44,44,44,44,44,44,44,44,44,36,36,36,36,36,36,36,36,36,36,36,36,36,36,37,
52,44,44,44,44,52,52,52,52,52,52,52,52,52,52,44,44,44,44,44,44,44,36,37,38,38,38,38,38,38,
52,52,52,52,36,37,38,38,38,38,38,38,38,38,38,52,52,52,52,52,36,36,36,37,38,46,46,46,46,46,
36,37,38,38,38,38,38,46,46,46,46,46,46,46,46,46,46,46,46,46,44,44,36,37,38,54,54,54,54,54,
38,38,46,46,46,36,36,36,36,36,36,36,36,36,36,36,37,38,36,36,52,36,37,38,38,36,44,44,44,44,
36,36,36,36,36,44,44,44,44,44,44,44,44,44,44,44,36,36,44,44,36,37,38,38,46,44,52,52,52,52,
36,36,36,36,44,52,52,52,52,52,52,36,36,36,36,36,36,44,52,36,37,38,38,46,54,52,53,54,38,38,
44,44,44,44,52,53,54,54,54,54,54,44,44,44,44,44,44,52,52,44,45,46,46,54,46,46,46,46,46,46,
52,52,52,52,52,52,52,52,52,53,54,52,52,52,52,52,52,52,52,52,53,54,54,54,54,54,54,54,54,54,
53,54,37,38,38,38,38,38,38,46,52,52,52,53,54,46,46,46,46,52,52,52,52,52,52,52,52,52,52,53,
53,54,38,38,46,46,46,46,46,54,54,53,54,54,54,54,54,54,54,54,46,46,46,46,46,46,46,38,38,38,
53,54,38,46,54,54,54,54,54,44,44,44,44,52,52,44,44,44,52,53,54,54,54,54,54,54,54,46,46,46,
53,54,46,54,17,18,19,52,52,52,52,52,52,52,52,52,52,52,52,44,44,44,44,44,52,53,54,54,54,54,
53,54,54,60,25,26,27,60,60,60,60,60,60,60,60,60,60,60,60,52,52,52,52,52,52,44,44,44,52,53,
60,60,60,60,33,34,35,60,60,60,60,60,60,60,60,60,60,60,60,60,60,52,52,36,37,38,52,52,52,44,
60,60,60,60,60,60,60,60,60,60,60,60,60,60,60,60,60,56,63,63,63,63,63,36,36,36,36,36,36,37,
63,63,63,63,63,63,2147483704,2147483703,60,60,60,60,60,60,60,60,56,64,36,37,38,38,38,38,44,44,36,37,38,38,
62,62,62,62,62,62,2147483712,2147483711,63,63,63,63,63,63,63,63,64,62,36,36,37,38,46,46,38,38,38,38,38,46,
62,62,62,62,62,62,62,62,62,62,62,62,62,62,62,62,62,62,44,44,45,46,54,54,46,46,46,46,46,54
</data>
 </layer>
</map>
