<?xml version="1.0" encoding="UTF-8"?>
<map version="1.10" tiledversion="1.12.1" orientation="orthogonal" renderorder="right-down" width="34" height="35" tilewidth="32" tileheight="32" infinite="0" nextlayerid="2" nextobjectid="1">
 <tileset firstgid="1" name="port" tilewidth="32" tileheight="32" tilecount="16" columns="4">
  <image source="../aseprite/bacground/antibarium/port.png" width="128" height="128"/>
 </tileset>
 <layer id="1" name="Tile Layer 1" width="34" height="35">
  <data encoding="csv">
2,3,3,2,2,3,2,2,2,2,2,2,2,3,2,2,2,2,2,2,3,3,2,3,2,3,2,2,2,2,2,2,3,2,
3,3,3,3,2,2,2,3,2,2,2,3,2,2,2,2,2,2,2,3,3,3,2,2,2,2,3,2,2,2,2,2,2,2,
3,3,3,3,3,3,2,2,2,3,2,2,2,2,2,3,3,2,3,2,3,3,3,3,3,3,2,3,2,3,3,3,2,3,
2,3,3,3,3,3,2,3,3,2,2,2,3,3,3,2,2,3,3,2,2,3,3,3,2,3,3,2,3,3,2,3,2,3,
3,3,3,3,3,2,3,3,2,2,3,2,2,2,2,3,2,3,3,3,3,3,2,3,3,2,2,3,3,3,3,3,2,3,
3,3,3,3,3,3,2,3,3,3,3,3,2,2,2,3,2,3,3,3,3,2,3,2,3,3,3,2,3,2,3,3,2,3,
3,3,3,3,2,2,3,3,3,2,3,2,2,2,3,3,2,2,2,3,3,2,3,3,3,2,3,2,3,2,2,3,2,3,
3,3,3,3,2,3,3,3,3,2,3,2,2,2,3,3,2,2,2,2,3,3,2,3,3,3,2,3,2,3,2,3,2,3,
3,3,3,2,3,3,3,2,3,2,3,2,2,3,3,2,2,2,2,3,3,2,3,2,3,3,2,3,2,3,2,3,2,3,
3,3,2,2,3,2,3,3,2,3,3,2,2,3,2,2,2,3,3,3,2,3,2,3,2,2,2,2,2,2,2,2,3,3,
3,2,2,3,3,2,3,3,2,3,3,2,2,3,3,2,3,3,3,2,2,3,2,3,2,2,2,3,2,3,2,3,2,3,
2,3,2,2,3,3,3,2,2,3,3,2,2,3,3,2,3,2,3,2,3,2,3,2,2,2,3,3,2,3,2,2,3,3,
3,3,2,3,3,3,3,3,2,3,3,2,2,2,3,3,2,3,3,3,3,3,2,2,2,2,3,2,3,2,2,2,3,3,
2,2,2,3,3,2,3,2,2,3,3,2,3,2,3,2,2,3,2,3,2,2,2,2,3,3,2,2,3,2,2,2,3,3,
2,2,2,2,3,2,3,2,3,3,2,2,3,2,2,2,3,3,2,2,2,2,3,3,3,3,2,3,2,2,2,2,3,3,
2,2,3,2,3,2,3,2,3,3,3,3,2,2,2,2,2,2,2,3,3,2,3,2,3,3,2,3,2,3,2,2,2,3,
3,3,2,3,3,2,2,2,3,2,3,3,2,2,2,3,2,2,2,2,2,2,3,2,3,2,2,2,3,2,2,2,3,2,
3,2,3,3,2,3,2,2,3,3,2,3,3,3,2,2,2,2,2,3,3,2,2,3,2,2,2,2,3,2,3,2,2,2,
2,3,2,3,3,2,3,2,3,3,3,3,3,2,2,2,3,2,3,3,2,2,2,2,3,2,2,2,2,2,3,2,2,3,
2,2,3,2,2,3,2,2,3,3,3,3,2,2,2,3,2,2,3,2,2,2,2,3,3,3,3,3,3,2,2,3,2,3,
2,2,3,2,3,3,2,2,3,2,3,3,2,3,2,3,2,2,3,2,3,2,3,3,2,2,3,3,3,3,3,3,3,2,
2,2,3,3,3,2,3,2,3,2,3,3,3,2,3,3,3,2,3,2,3,3,3,3,2,2,3,2,3,2,3,2,3,2,
2,3,3,3,2,2,3,2,3,2,3,3,3,3,3,3,2,2,3,3,3,3,3,3,3,2,2,3,3,3,3,3,3,3,
2,3,3,3,2,3,3,2,3,2,3,3,3,3,3,2,2,3,3,3,3,3,3,3,3,2,2,3,3,2,2,3,3,3,
2,2,3,2,2,3,2,2,3,2,3,3,3,2,2,2,2,3,3,3,3,3,3,2,3,3,3,3,3,2,2,2,3,3,
2,3,3,2,3,2,2,2,3,3,3,2,2,3,2,2,3,3,3,3,2,3,3,2,3,2,2,2,2,2,2,2,3,3,
2,3,2,2,2,2,3,2,3,3,2,3,2,2,2,2,3,3,3,3,2,3,3,2,2,2,3,3,2,2,3,2,3,3,
2,3,3,2,3,3,3,2,3,2,3,3,2,2,2,3,3,2,3,2,3,3,3,3,3,2,3,3,3,2,3,2,2,3,
2,3,3,3,2,2,3,2,3,2,3,2,2,3,3,2,3,3,2,3,3,3,2,2,2,3,2,3,2,2,3,2,2,3,
2,3,2,3,2,2,2,2,3,2,3,2,2,2,3,2,2,3,2,2,3,2,2,2,2,3,2,2,2,3,3,3,2,3,
2,3,2,2,3,2,2,2,3,3,3,3,2,3,2,2,2,2,2,2,2,2,2,3,2,2,2,2,3,3,3,2,3,3,
2,2,2,2,2,2,3,2,2,3,3,3,2,3,3,3,2,3,3,2,3,2,3,2,3,3,2,2,3,2,2,2,2,3,
2,2,2,2,3,2,2,2,3,3,3,3,2,3,2,3,3,3,3,3,3,2,3,3,3,2,3,2,2,2,2,3,2,3,
9,10,11,12,9,10,11,12,9,10,11,12,9,10,11,12,9,10,11,12,9,10,11,12,9,10,11,12,9,10,11,12,9,10,
13,14,15,16,13,14,15,16,13,14,15,16,13,14,15,16,13,14,15,16,13,14,15,16,13,14,15,16,13,14,15,16,13,14
</data>
 </layer>
</map>
